X:2
T:Amhr\'an Na Leabhar
T:The Song of the Books
T:Valencia harbour
M:4/4
L:1/8
S:Noel <noelbats:onetel.com> tradtunes 2009-3-31
K:Edor
B |\
E2 EF G2 A2 | B2 (e4e) f | e3d B3A | Bc (d4d) e \
E3F G3F | GA (B2B3) A | G2 (E4E) D | (E6 z B |
E3F G3A | B (e3e3) d | e3d B3A | Bc (d4 d2)zB \
E2EF G3F | GA (B2 B3)A | G3F E3D | (E6)z e ||
e2ed e3d | ef (g4g) f | e3d B3A | (B4 B)z Bc \
d2dc d3c | dd (e4e) d | B3A G3A | B6 zB |
E2EF G2A2 | Be(e4e)f | e3d B3A | Bc(d4d)e \
E2EF G3F | GA (B4 B)A | G3F E3D | E6 ||
